static/assets/svg/human/humanClothes/glasses/glasses4.svg

<svg class="glasses" width="86" height="380" viewBox="202.715 584.407 86.593 380.048" xmlns="http://www.w3.org/2000/svg"><path class="lines" d="M279.605 615.473c-.465 4.507-7.036 8.266-15.215 8.24-8.185-.014-14.732-3.827-15.162-8.32-.024-.213-.048-.387-.048-.56 0-.293.031-.6.081-.88.734-4.347 7.208-7.934 15.188-7.907 7.981.014 14.429 3.64 15.132 7.987.049.293.075.587.072.893 0 .16-.026.347-.048.547zm-53.114 8.12c-8.184-.014-14.726-3.813-15.157-8.32-.022-.2-.051-.387-.051-.547.004-.306.031-.6.084-.893.732-4.347 7.205-7.933 15.187-7.894 7.978.014 14.428 3.64 15.132 7.987.049.294.075.587.072.88 0 .174-.027.36-.05.56-.463 4.494-7.033 8.267-15.217 8.227zm53.862-9.667a6.547 6.547 0 0 0-.319-1.107c-.187-4.973-7.074-8.986-15.576-8.999-8.499-.027-15.414 3.933-15.639 8.906a6.02 6.02 0 0 0-.328 1.107l-.027.267-5.987-.027-.021-.254a6.5 6.5 0 0 0-.318-1.12c-.19-4.959-7.077-8.973-15.575-9-8.5-.026-15.415 3.947-15.64 8.907a6.721 6.721 0 0 0-.328 1.12c-.058.32-.09.653-.09 1 0 .227.032.427.048.614a6.34 6.34 0 0 0 .504 1.84c1.044 4.466 7.537 7.919 15.43 7.946 7.887.027 14.407-3.4 15.483-7.853.093-.214.162-.427.23-.64l6.524.026c.072.214.138.427.231.64 1.05 4.467 7.54 7.92 15.425 7.947 7.889.013 14.406-3.4 15.486-7.867a6.279 6.279 0 0 0 .513-1.826c.024-.187.055-.4.055-.627a5.815 5.815 0 0 0-.081-1" fill="#711725"/></svg>

<svg id="glasses4" class="glasses" width="86" height="380" viewBox="202.715 584.407 86.5933 380.048" preserveAspectRatio="xMidYMid meet" xmlns="http://www.w3.org/2000/svg"> <defs id="svgEditorDefs"> <path id="svgEditorClosePathDefs" class="lines" fill="black" style="stroke-width: 0px; stroke: none;"/> </defs> <path class="lines" id="path2462" style="fill: rgb(113, 23, 37); fill-opacity: 1; fill-rule: nonzero; stroke: none;" d="M 279.605 615.473 C 279.14 619.98 272.569 623.739 264.39 623.713 C 256.205 623.699 249.658 619.886 249.228 615.393 C 249.204 615.18 249.18 615.006 249.18 614.833 C 249.18 614.54 249.211 614.233 249.261 613.953 C 249.995 609.606 256.469 606.019 264.449 606.046 C 272.43 606.06 278.878 609.686 279.581 614.033 C 279.63 614.326 279.656 614.62 279.653 614.926 C 279.653 615.086 279.627 615.273 279.605 615.473 Z M 226.491 623.593 C 218.307 623.579 211.765 619.78 211.334 615.273 C 211.312 615.073 211.283 614.886 211.283 614.726 C 211.287 614.42 211.314 614.126 211.367 613.833 C 212.099 609.486 218.572 605.9 226.554 605.939 C 234.532 605.953 240.982 609.579 241.686 613.926 C 241.735 614.22 241.761 614.513 241.758 614.806 C 241.758 614.98 241.731 615.166 241.708 615.366 C 241.245 619.86 234.675 623.633 226.491 623.593 Z M 280.353 613.926 C 280.285 613.553 280.169 613.18 280.034 612.819 C 279.847 607.846 272.96 603.833 264.458 603.82 C 255.959 603.793 249.044 607.753 248.819 612.726 C 248.677 613.086 248.56 613.459 248.491 613.833 L 248.464 614.1 L 242.477 614.073 L 242.456 613.819 C 242.387 613.433 242.276 613.073 242.138 612.699 C 241.948 607.74 235.061 603.726 226.563 603.699 C 218.063 603.673 211.148 607.646 210.923 612.606 C 210.785 612.98 210.666 613.34 210.595 613.726 C 210.537 614.046 210.505 614.379 210.505 614.726 C 210.505 614.953 210.537 615.153 210.553 615.34 C 210.626 615.98 210.799 616.593 211.057 617.18 C 212.101 621.646 218.594 625.099 226.487 625.126 C 234.374 625.153 240.894 621.726 241.97 617.273 C 242.063 617.059 242.132 616.846 242.2 616.633 L 248.724 616.659 C 248.796 616.873 248.862 617.086 248.955 617.299 C 250.005 621.766 256.495 625.219 264.38 625.246 C 272.269 625.259 278.786 621.846 279.866 617.379 C 280.129 616.793 280.304 616.18 280.379 615.553 C 280.403 615.366 280.434 615.153 280.434 614.926 C 280.436 614.593 280.409 614.259 280.353 613.926"/></svg>
